X:1
T:Heavenly Armor
T:C Major       William Walker, 1835
T:Transcribed from Southern Harmony, 1835.
T:John Leland, 1793            
%%score [ 1 2 3 ]
L:1/8
Q:1/4=100
M:4/4
K:C
V:1 treble nm="Tr." snm="Tr."
V:2 treble-8 nm="T." snm="T."
V:3 bass nm="B." snm="B."
V:1
"_And      if  you  meet  with  troubles    And trials  on  the  way,  \nThen    cast your cares on Je – sus,    And don't forget to pray," c4 | %1
 e2 e2 ed e2 | (g3 e) de c2 | c2 e2 e2 d2 ||1 c4 :|2 c8 || %6
 z4"_Gird on the heavenly armor  Of faith, and hope and love,   And when your race is en – ded,  You'll reign with him above." e4 | %7
 g2 g2 ed e2 | d4 e2 d2 | c3 d ed c2 | d4 c4 | e2 e2 ed e2 | (g3 e) de c2 | c2 e2 e2 d2 | c8 |] %15
V:2
"_O         do  not  be   dis – cou – raged,  For Jesus  is your friend,\nAnd      if   you  lack  for   know–ledge,  He'll not refuse to lend," (G3 A) | %1
 c2 c2 cd e2 | (d3 e) dc A2 | c2 c2 G2 A2 ||1 G4 :|2 G8 || %6
 z4"_Neither will he upbraid you, Though often you request,  He'll      give you grace to con  – quer,  And take you up to rest." c4 | %7
 d2 d2 ed e2 | g4 g2 g2 | e3 d cd e2 | d4 (G3 A) | c2 c2 cd e2 | (d3 e) dc A2 | c2 c2 G2 A2 | G8 |] %15
V:3
"__________________________________________\nThe Sacred Harp, p. 193, 1844 to the present." (G,3 A,) | %1
 C2 A,2 A,G, E,2 | (G,3 E,) G,2 A,2 | A,2 G,2 E,2 D,2 ||1 C,4 :|2 C,8 || z4 C4 | G,2 G,2 E,G, A,2 | %8
 G,4 G,2 G,2 | A,3 B, A,G, E,2 | G,4 (G,3 A,) | C2 A,2 A,G, E,2 | (G,3 E,) G,2 A,2 | %13
 A,2 G,2 E,2 D,2 | C,8 |] %15

